svg/iD-sprite/presets/restriction-no-u-turn.svg

<?xml version="1.0" encoding="UTF-8"?>
<!DOCTYPE svg PUBLIC "-//W3C//DTD SVG 1.1//EN" "http://www.w3.org/Graphics/SVG/1.1/DTD/svg11.dtd">
<svg version="1.1" xmlns="http://www.w3.org/2000/svg" xmlns:xlink="http://www.w3.org/1999/xlink" x="0" y="0" width="60" height="60" viewBox="0 0 60 60">
  <path d="M29,22 L26.688,23.156 L31.531,28 L35,28 L37,30 L37,36 L31,36 L40,46 L49,36 L43,36 L43,30 L41.719,27.406 L41,26 L39,24 L35,22 z M22.844,26.344 L21,30 L21,36.312 C22.343,38.225 24.267,39.72 26.531,40.469 L27,40 L27,30.5 z" fill="#989898"/>
  <path d="M30,15 C21.71,15 15,21.71 15,30 C15,38.29 21.71,45 30,45 C32.307,45 34.486,44.46 36.437,43.531 L34.312,41.156 C32.975,41.679 31.522,42 30,42 C23.378,42 18,36.621 18,30 C18,27.439 18.822,25.041 20.187,23.094 L20.531,22.625 L20.937,23.031 L32.906,35 L36,35 L36,33.875 L23.062,20.938 L22.625,20.5 L23.125,20.156 C25.072,18.791 27.439,18 30,18 C34.385,18 38.219,20.359 40.312,23.875 L41.812,25.406 L44,29.75 L44,35 L44.125,35 C44.677,33.436 45,31.754 45,30 C45,21.71 38.29,15 30,15 z" fill="#E06D5F"/>
</svg>

<?xml version="1.0" encoding="utf-8"?>
<!-- Generator: Adobe Illustrator 23.0.4, SVG Export Plug-In . SVG Version: 6.00 Build 0)  -->
<svg version="1.1" id="Layer_1" xmlns="http://www.w3.org/2000/svg" xmlns:xlink="http://www.w3.org/1999/xlink" x="0px" y="0px"
	 viewBox="0 0 60 60" style="enable-background:new 0 0 60 60;" xml:space="preserve">
<style type="text/css">
	.st0{fill:#FFFFFF;}
</style>
<path class="st0" d="M29,22l-2.3,1.2l4.8,4.8H35l2,2v6h-6l9,10l9-10h-6v-6l-1.3-2.6L41,26l-2-2l-4-2H29z M22.8,26.3L21,30v6.3
	c1.3,1.9,3.3,3.4,5.5,4.2L27,40v-9.5L22.8,26.3z"/>
<path class="st0" d="M30,15c-8.3,0-15,6.7-15,15s6.7,15,15,15c2.3,0,4.5-0.5,6.4-1.5l-2.1-2.4C33,41.7,31.5,42,30,42
	c-6.6,0-12-5.4-12-12c0-2.6,0.8-5,2.2-6.9l0.3-0.5l0.4,0.4l12,12H36v-1.1L23.1,20.9l-0.4-0.4l0.5-0.3c1.9-1.4,4.3-2.2,6.9-2.2
	c4.4,0,8.2,2.4,10.3,5.9l1.5,1.5l2.2,4.3V35h0.1c0.6-1.6,0.9-3.2,0.9-5C45,21.7,38.3,15,30,15z"/>
</svg>
